packages/icons/src/gitops-clusters-blue-circle.svg

<svg fill="none" viewBox="0 0 32 32" xmlns="http://www.w3.org/2000/svg"><circle cx="16" cy="16" fill="#00ade4" r="16"/><path clip-rule="evenodd" d="m16.4817 9.35c-.3031-.14245-.6539-.14245-.957 0l-4.7917 2.2519c-.3113.1463-.5386.427-.6169.7619l-1.17832 5.0381c-.07953.34.00335.6976.22431.968l3.30801 4.0481c.2137.2615.5335.4131.8711.4131h5.324c.3376 0 .6574-.1516.8711-.4131l3.308-4.0481c.221-.2704.3038-.628.2243-.9681l-1.1783-5.038c-.0783-.3349-.3056-.6156-.6169-.7619zm-5.2702 3.27 4.7917-2.2518 4.7917 2.2518 1.1783 5.0381-3.308 4.048h-5.324l-3.308-4.048zm2.5471-.2391c-.6106 0-1.1056.495-1.1056 1.1056v1.4451c0 .6106.495 1.1055 1.1056 1.1055h1.4451c.6106 0 1.1056-.4949 1.1056-1.1055v-1.4451c0-.6106-.495-1.1056-1.1056-1.1056zm0 1.1056h1.4451v1.4451h-1.4451zm-1.1056 4.4435c0-.6106.495-1.1056 1.1056-1.1056h1.4451c.6106 0 1.1056.495 1.1056 1.1056v1.4451c0 .6106-.495 1.1055-1.1056 1.1055h-1.4451c-.6106 0-1.1056-.495-1.1056-1.1055zm2.5507 0h-1.4451v1.4451h1.4451zm2.7286-3.3453c-.6106 0-1.1056.495-1.1056 1.1056v1.4451c0 .6105.495 1.1055 1.1056 1.1055h1.4451c.6106 0 1.1056-.495 1.1056-1.1055v-1.4451c0-.6106-.495-1.1056-1.1056-1.1056zm0 1.1056h1.4451v1.4451h-1.4451z" fill="#fff" fill-rule="evenodd"/></svg>

<svg viewBox="0 0 32 32" fill="none" xmlns="http://www.w3.org/2000/svg">
<circle cx="16" cy="16" r="16" fill="#00ADE4"/>
<rect transform="translate(7 7)" fill="#00ADE4"/>
<path fill-rule="evenodd" clip-rule="evenodd" d="M16.4817 9.35C16.1786 9.20755 15.8278 9.20755 15.5247 9.35L10.733 11.6019C10.4217 11.7482 10.1944 12.0289 10.1161 12.3638L8.93778 17.4019C8.85825 17.7419 8.94113 18.0995 9.16209 18.3699L12.4701 22.418C12.6838 22.6795 13.0036 22.8311 13.3412 22.8311H18.6652C19.0028 22.8311 19.3226 22.6795 19.5363 22.418L22.8443 18.3699C23.0653 18.0995 23.1481 17.7419 23.0686 17.4018L21.8903 12.3638C21.812 12.0289 21.5847 11.7482 21.2734 11.6019L16.4817 9.35ZM11.2115 12.62L16.0032 10.3682L20.7949 12.62L21.9732 17.6581L18.6652 21.7061H13.3412L10.0332 17.6581L11.2115 12.62ZM13.7586 12.3809C13.148 12.3809 12.653 12.8759 12.653 13.4865V14.9316C12.653 15.5422 13.148 16.0371 13.7586 16.0371H15.2037C15.8143 16.0371 16.3093 15.5422 16.3093 14.9316V13.4865C16.3093 12.8759 15.8143 12.3809 15.2037 12.3809H13.7586ZM13.7586 13.4865L15.2037 13.4865L15.2037 14.9316L13.7586 14.9316V13.4865ZM12.653 17.93C12.653 17.3194 13.148 16.8244 13.7586 16.8244H15.2037C15.8143 16.8244 16.3093 17.3194 16.3093 17.93V19.3751C16.3093 19.9857 15.8143 20.4806 15.2037 20.4806H13.7586C13.148 20.4806 12.653 19.9856 12.653 19.3751V17.93ZM15.2037 17.93H13.7586V19.3751H15.2037L15.2037 17.93ZM17.9323 14.5847C17.3217 14.5847 16.8267 15.0797 16.8267 15.6903V17.1354C16.8267 17.7459 17.3217 18.2409 17.9323 18.2409H19.3774C19.988 18.2409 20.483 17.7459 20.483 17.1354V15.6903C20.483 15.0797 19.988 14.5847 19.3774 14.5847H17.9323ZM17.9323 15.6903L19.3774 15.6903V17.1354L17.9323 17.1354V15.6903Z" fill="white"/>
</svg>
